X: 30511
T: Olivier's Schottische
R: barndance
M: 4/4
K: Dmajor
|:B2 Bd f2ed|c2 cd c4|f2fg fedc|decd B2B2:|
|:G3B d2cB|d2cB F4|f2fg fedc|decd B2B2:|

